X: 33494
T: Raheen, The
R: reel
M: 4/4
K: Dmajor
~D3F ED[BB,][DA]|[D2A2]DE FA~A2|Beed efde|f2ef dBAF|
~D3F ED[BB,][DA]|[D2A2]DE FA~A2|Beed efdB|1 AFEF D2FE:|2 AFEF D2dB||
ABde ~f2ef|afdf edBd|ABde f2bf|afeg fddB|
ABde ~f2ef|afdf edBc|dedB AFaf|1 egfe d2dB:|2 egfe dBAF||

